resources/images/menu_obj_torus.svg

<svg width="16" height="16" viewBox="0 0 16 16" fill="none" xmlns="http://www.w3.org/2000/svg">
<g clip-path="url(#clip0_10670_18923)">
<path d="M14.0526 2.94598L14.1426 3.15498L14.2086 3.32698L14.2936 3.58998C14.3599 3.8151 14.41 4.04469 14.4436 4.27698L14.4766 4.55998L14.4986 4.99298C14.5021 5.23745 14.4908 5.4819 14.4646 5.72498C14.4195 6.14266 14.3378 6.55558 14.2206 6.95898C14.0793 7.4449 13.8969 7.91793 13.6756 8.37298L13.5296 8.66198C13.2762 9.14225 12.9878 9.60317 12.6666 10.041C12.3461 10.477 11.997 10.8912 11.6216 11.281C11.2606 11.6551 10.8765 12.0061 10.4716 12.332L9.98356 12.704L9.28356 13.169L8.46556 13.623L8.00956 13.837C7.57465 14.0271 7.12479 14.1809 6.66456 14.297C6.1872 14.416 5.69835 14.4831 5.20656 14.497L4.76056 14.491L4.46056 14.467C4.20947 14.4406 3.96075 14.3951 3.71656 14.331C3.38569 14.2447 3.06565 14.1213 2.76256 13.963C2.48141 13.8157 2.21774 13.6373 1.97656 13.431" stroke="#949494" stroke-linecap="round" stroke-linejoin="round"/>
<path d="M13.584 2.164C13.7674 2.40745 13.9246 2.66956 14.053 2.946" stroke="#949494" stroke-linecap="round" stroke-linejoin="round"/>
<path d="M5.54492 9.25002C7.15769 8.51436 8.46535 7.24204 9.24492 5.65002" stroke="#949494" stroke-linecap="round" stroke-linejoin="round"/>
<path d="M1.98017 13.434C1.70655 13.1999 1.46482 12.9309 1.26117 12.634L1.02317 12.24L0.911175 12.01L0.751175 11.61L0.681175 11.384L0.552175 10.775L0.500175 10.2C0.493326 9.95161 0.503014 9.70306 0.529175 9.45598C0.569951 9.07198 0.643894 8.69223 0.750175 8.32098L1.00017 7.57498L1.15417 7.20598L1.32517 6.83898C1.50868 6.46903 1.713 6.10979 1.93717 5.76298L2.17017 5.41698L2.67018 4.74698C2.92618 4.42698 3.20018 4.11698 3.48918 3.81898C3.77818 3.52098 4.05518 3.26098 4.35518 3.00098C4.63918 2.75564 4.93184 2.52431 5.23317 2.30698L5.83918 1.89698L6.16017 1.69698C6.54618 1.46838 6.94708 1.26593 7.36018 1.09098L7.93318 0.877978L8.32517 0.755978L9.06717 0.586978L9.52817 0.525978L9.68017 0.512978C10.0582 0.485644 10.4381 0.499391 10.8132 0.553978L11.0922 0.603978L11.2512 0.640978L11.4722 0.700978C11.6936 0.768218 11.9093 0.853159 12.1172 0.954978C12.6941 1.23748 13.1966 1.65161 13.5842 2.16398C13.6968 2.31322 13.793 2.47415 13.8712 2.64398" stroke="#949494" stroke-linecap="round" stroke-linejoin="round"/>
<path d="M9.43809 5.15503C9.38403 5.32534 9.31992 5.4923 9.24609 5.65503" stroke="#949494" stroke-linecap="round" stroke-linejoin="round"/>
<path d="M9.45186 5.10999L9.38486 5.11999L9.07386 5.18999L8.60386 5.35899L8.41186 5.44599L8.21786 5.54599L7.64586 5.89199L7.07786 6.32299L6.51086 6.85199L5.98686 7.45199C5.82884 7.65558 5.68292 7.86828 5.54986 8.08898C5.43109 8.28576 5.32553 8.49021 5.23386 8.70099L5.09986 9.05499L5.05086 9.22599L5.01786 9.36599L5.00586 9.43298" stroke="#949494" stroke-linecap="round" stroke-linejoin="round"/>
<path d="M9.43848 5.15502C9.6138 4.68704 9.64275 4.17682 9.52148 3.69202" stroke="#949494" stroke-linecap="round" stroke-linejoin="round"/>
<path d="M5.54492 9.24998L5.67592 9.19298L6.09292 8.98298L6.31492 8.85398L6.53092 8.71598C6.76365 8.56137 6.98796 8.39447 7.20292 8.21598C7.44225 8.01757 7.67027 7.80591 7.88592 7.58198C8.10781 7.35361 8.31585 7.11218 8.50892 6.85898C8.68817 6.62371 8.85217 6.37721 8.99992 6.12098L9.23392 5.66998" stroke="#949494" stroke-linecap="round" stroke-linejoin="round"/>
<path d="M3.17578 9.151C3.51829 9.39592 3.92471 9.5358 4.3454 9.55356C4.76609 9.57132 5.18285 9.46619 5.54478 9.251" stroke="#949494" stroke-linecap="round" stroke-linejoin="round"/>
<path d="M9.12695 3.09998C9.31437 3.25403 9.45156 3.46051 9.52095 3.69298" stroke="#949494" stroke-linecap="round" stroke-linejoin="round"/>
</g>
<defs>
<clipPath id="clip0_10670_18923">
<rect width="16" height="16" fill="white"/>
</clipPath>
</defs>
</svg>

<svg xmlns="http://www.w3.org/2000/svg" width="16" height="16" viewBox="0 0 16 16"><path d="M14.053,2.946l.09.209.066.172.085.263a4.91,4.91,0,0,1,.15.687l.033.283.022.433a6.015,6.015,0,0,1-.034.732,7.18,7.18,0,0,1-.244,1.234,8.938,8.938,0,0,1-.545,1.414l-.146.289a11.038,11.038,0,0,1-.863,1.379,12.225,12.225,0,0,1-1.045,1.24,12.4,12.4,0,0,1-1.15,1.051l-.488.372-.7.465-.818.454-.456.214a8.625,8.625,0,0,1-1.345.46,6.822,6.822,0,0,1-1.458.2l-.446-.006-.3-.024a4.976,4.976,0,0,1-.744-.136,4.53,4.53,0,0,1-.954-.368,4.224,4.224,0,0,1-.786-.532" style="fill:none;stroke:#949494;stroke-linecap:round;stroke-linejoin:round"/><path d="M13.584,2.164a4.333,4.333,0,0,1,.469.782" style="fill:none;stroke:#949494;stroke-linecap:round;stroke-linejoin:round"/><path d="M5.545,9.25a7.659,7.659,0,0,0,3.7-3.6" style="fill:none;stroke:#949494;stroke-linecap:round;stroke-linejoin:round"/><path d="M1.98,13.434a4.116,4.116,0,0,1-.719-.8l-.238-.394L.911,12.01l-.16-.4-.07-.226-.129-.609L.5,10.2a5.6,5.6,0,0,1,.029-.744A6.691,6.691,0,0,1,.75,8.321L1,7.575l.154-.369.171-.367a10.925,10.925,0,0,1,.612-1.076l.233-.346.5-.67c.256-.32.53-.63.819-.928s.566-.558.866-.818q.426-.368.878-.694l.606-.41.321-.2a10.036,10.036,0,0,1,1.2-.606L7.933.878,8.325.756,9.067.587,9.528.526,9.68.513a5.242,5.242,0,0,1,1.133.041l.279.05.159.037.221.06a4.317,4.317,0,0,1,.645.254,4.1,4.1,0,0,1,1.467,1.209,2.606,2.606,0,0,1,.287.48" style="fill:none;stroke:#949494;stroke-linecap:round;stroke-linejoin:round"/><path d="M9.438,5.155a4.52,4.52,0,0,1-.192.5" style="fill:none;stroke:#949494;stroke-linecap:round;stroke-linejoin:round"/><path d="M9.452,5.11l-.067.01-.311.07-.47.169-.192.087-.194.1-.572.346-.568.431-.567.529-.524.6a6.579,6.579,0,0,0-.437.637,5.191,5.191,0,0,0-.316.612L5.1,9.055l-.049.171-.033.14-.012.067" style="fill:none;stroke:#949494;stroke-linecap:round;stroke-linejoin:round"/><path d="M9.438,5.155a2.465,2.465,0,0,0,.083-1.463" style="fill:none;stroke:#949494;stroke-linecap:round;stroke-linejoin:round"/><path d="M5.545,9.25l.131-.057.417-.21.222-.129.216-.138a7.864,7.864,0,0,0,.672-.5,8.323,8.323,0,0,0,.683-.634,7.989,7.989,0,0,0,.623-.723A6.93,6.93,0,0,0,9,6.121l.234-.451" style="fill:none;stroke:#949494;stroke-linecap:round;stroke-linejoin:round"/><path d="M3.176,9.151a2.168,2.168,0,0,0,2.369.1" style="fill:none;stroke:#949494;stroke-linecap:round;stroke-linejoin:round"/><path d="M9.127,3.1a1.219,1.219,0,0,1,.394.593" style="fill:none;stroke:#949494;stroke-linecap:round;stroke-linejoin:round"/></svg>
